assets/img/braze_icons/marker-pin-02.svg

<svg fill="none" height="24" viewBox="0 0 24 24" width="24" xmlns="http://www.w3.org/2000/svg"><path clip-rule="evenodd" d="m3 10c0-4.97056 4.02944-9 9-9 4.9706 0 9 4.02944 9 9 0 3.1191-1.7439 5.3655-3.5287 7.2244-.4306.4486-.8748.8854-1.3042 1.3077l-.0557.0548c-.4506.4432-.884.8706-1.2922 1.3009-.8207.8648-1.4908 1.6914-1.9248 2.5594-.1694.3388-.5156.5528-.8944.5528s-.725-.214-.8944-.5528c-.434-.868-1.1041-1.6946-1.92475-2.5594-.40824-.4303-.84161-.8577-1.29222-1.3009l-.05583-.0549c-.42938-.4223-.8735-.859-1.30415-1.3076-1.78478-1.8589-3.52865-4.1053-3.52865-7.2244zm12-.5c0 1.6569-1.3431 3-3 3s-3-1.3431-3-3c0-1.65685 1.3431-3 3-3s3 1.34315 3 3z" fill="#801ed7" fill-rule="evenodd"/></svg>

<svg width="24" height="24" viewBox="0 0 24 24" fill="none" xmlns="http://www.w3.org/2000/svg">
<path fill-rule="evenodd" clip-rule="evenodd" d="M3 10C3 5.02944 7.02944 1 12 1C16.9706 1 21 5.02944 21 10C21 13.1191 19.2561 15.3655 17.4713 17.2244C17.0407 17.673 16.5965 18.1098 16.1671 18.5321L16.1114 18.5869C15.6608 19.0301 15.2274 19.4575 14.8192 19.8878C13.9985 20.7526 13.3284 21.5792 12.8944 22.4472C12.725 22.786 12.3788 23 12 23C11.6212 23 11.275 22.786 11.1056 22.4472C10.6716 21.5792 10.0015 20.7526 9.18085 19.8878C8.77261 19.4575 8.33924 19.0301 7.88863 18.5869L7.8328 18.532C7.40342 18.1097 6.9593 17.673 6.52865 17.2244C4.74387 15.3655 3 13.1191 3 10ZM15 9.5C15 11.1569 13.6569 12.5 12 12.5C10.3431 12.5 9 11.1569 9 9.5C9 7.84315 10.3431 6.5 12 6.5C13.6569 6.5 15 7.84315 15 9.5Z" fill="#801ED7"/>
</svg>
